symbols/web/local_convenience_store/materialsymbolsoutlined/local_convenience_store_wght300gradN25_40px.svg

<svg xmlns="http://www.w3.org/2000/svg" height="40" width="40"><path d="M13.375 29.917h4.708V28.5h-3.291v-1.958h3.291v-4.75h-4.708v1.416h3.292v1.917h-3.292Zm11.833 0h1.417v-8.125h-1.417v3.333h-1.875v-3.333h-1.416v4.75h3.291Zm9.209-11.625v13.625q0 1.041-.729 1.771-.73.729-1.771.729H8.042q-1.042 0-1.771-.729-.729-.73-.729-1.771V18.25Q4.417 17.417 4 16.021q-.417-1.396.042-2.813l1.666-5.416q.334-1.084 1.125-1.667.792-.583 1.834-.583h22.5q1.083 0 1.916.583.834.583 1.167 1.625l1.708 5.458q.459 1.459.021 2.834-.437 1.375-1.562 2.25Zm-10.75-.959q1.416 0 2.229-.833.812-.833.687-1.875L25.5 7.542H21v6.916q0 1.167.771 2.021.771.854 1.896.854Zm-7.584 0q1.25 0 2.084-.854.833-.854.833-2.021V7.542h-4.5l-1.083 7.125q-.125.916.645 1.791.771.875 2.021.875Zm-7.416 0q1.041 0 1.791-.708t.917-1.792l1.083-7.291H8.417q-.292 0-.459.125-.166.125-.208.375L6 13.667q-.417 1.375.354 2.521.771 1.145 2.313 1.145Zm22.666 0q1.417 0 2.271-1.104.854-1.104.396-2.562L32.25 8q-.083-.25-.25-.354-.167-.104-.417-.104h-4.041l1.083 7.291q.167 1.042.917 1.771.75.729 1.791.729ZM8.042 32.417h23.875q.208 0 .375-.146.166-.146.166-.354V19.208q-.166.084-.5.104-.333.021-.625.021-1.083 0-1.979-.437-.896-.438-1.729-1.354-.625.791-1.604 1.291-.979.5-2.271.5-1.083 0-1.979-.416-.896-.417-1.771-1.25-.75.791-1.729 1.229-.979.437-2.021.437-1.167 0-2.146-.416-.979-.417-1.729-1.375-1.125 1.041-2.063 1.416-.937.375-1.645.375-.334 0-.625-.021-.292-.02-.5-.104v12.709q0 .208.146.354.145.146.354.146Zm23.875 0H8.042h23.875Z"/></svg>

<svg xmlns="http://www.w3.org/2000/svg" height="40" width="40"><path d="M13.375 29.917H18.083V28.5H14.792V26.542H18.083V21.792H13.375V23.208H16.667V25.125H13.375ZM25.208 29.917H26.625V21.792H25.208V25.125H23.333V21.792H21.917V26.542H25.208ZM34.417 18.292V31.917Q34.417 32.958 33.688 33.688Q32.958 34.417 31.917 34.417H8.042Q7 34.417 6.271 33.688Q5.542 32.958 5.542 31.917V18.25Q4.417 17.417 4 16.021Q3.583 14.625 4.042 13.208L5.708 7.792Q6.042 6.708 6.833 6.125Q7.625 5.542 8.667 5.542H31.167Q32.25 5.542 33.083 6.125Q33.917 6.708 34.25 7.75L35.958 13.208Q36.417 14.667 35.979 16.042Q35.542 17.417 34.417 18.292ZM23.667 17.333Q25.083 17.333 25.896 16.5Q26.708 15.667 26.583 14.625L25.5 7.542H21V14.458Q21 15.625 21.771 16.479Q22.542 17.333 23.667 17.333ZM16.083 17.333Q17.333 17.333 18.167 16.479Q19 15.625 19 14.458V7.542H14.5L13.417 14.667Q13.292 15.583 14.062 16.458Q14.833 17.333 16.083 17.333ZM8.667 17.333Q9.708 17.333 10.458 16.625Q11.208 15.917 11.375 14.833L12.458 7.542H8.417Q8.125 7.542 7.958 7.667Q7.792 7.792 7.75 8.042L6 13.667Q5.583 15.042 6.354 16.188Q7.125 17.333 8.667 17.333ZM31.333 17.333Q32.75 17.333 33.604 16.229Q34.458 15.125 34 13.667L32.25 8Q32.167 7.75 32 7.646Q31.833 7.542 31.583 7.542H27.542L28.625 14.833Q28.792 15.875 29.542 16.604Q30.292 17.333 31.333 17.333ZM8.042 32.417H31.917Q32.125 32.417 32.292 32.271Q32.458 32.125 32.458 31.917V19.208Q32.292 19.292 31.958 19.312Q31.625 19.333 31.333 19.333Q30.25 19.333 29.354 18.896Q28.458 18.458 27.625 17.542Q27 18.333 26.021 18.833Q25.042 19.333 23.75 19.333Q22.667 19.333 21.771 18.917Q20.875 18.5 20 17.667Q19.25 18.458 18.271 18.896Q17.292 19.333 16.25 19.333Q15.083 19.333 14.104 18.917Q13.125 18.5 12.375 17.542Q11.25 18.583 10.312 18.958Q9.375 19.333 8.667 19.333Q8.333 19.333 8.042 19.312Q7.75 19.292 7.542 19.208V31.917Q7.542 32.125 7.688 32.271Q7.833 32.417 8.042 32.417ZM31.917 32.417H8.042Q8.042 32.417 8.042 32.417Q8.042 32.417 8.042 32.417Q8.083 32.417 8.271 32.417Q8.458 32.417 8.667 32.417Q9.125 32.417 10.396 32.417Q11.667 32.417 12.375 32.417Q12.625 32.417 13.125 32.417Q13.625 32.417 14.208 32.417Q14.792 32.417 15.354 32.417Q15.917 32.417 16.25 32.417Q16.542 32.417 17.083 32.417Q17.625 32.417 18.188 32.417Q18.75 32.417 19.271 32.417Q19.792 32.417 20 32.417Q20.542 32.417 21.812 32.417Q23.083 32.417 23.75 32.417Q24.125 32.417 24.688 32.417Q25.25 32.417 25.854 32.417Q26.458 32.417 26.938 32.417Q27.417 32.417 27.625 32.417Q28.208 32.417 29.458 32.417Q30.708 32.417 31.333 32.417Q31.5 32.417 31.708 32.417Q31.917 32.417 31.917 32.417Q31.917 32.417 31.917 32.417Q31.917 32.417 31.917 32.417Z"/></svg>
